assets/icons/24px/stroke/arrow-thick-up-24px.svg

<svg width="24" height="24" viewBox="0 0 24 24" fill="none" xmlns="http://www.w3.org/2000/svg">
<path fill-rule="evenodd" clip-rule="evenodd" d="M11.3817 4.12339C11.0107 4.40646 10.5653 4.84882 9.87867 5.53548L8.46446 6.94969C7.53967 7.87448 7.28677 8.15241 7.15223 8.47722C7.01769 8.80202 6.99999 9.17738 6.99999 10.4852L6.99999 19.5857L8.511 18.0747C9.13781 17.4478 9.67788 16.9077 10.1685 16.5333C10.6944 16.1321 11.2792 15.8284 12 15.8284C12.7208 15.8284 13.3056 16.1321 13.8314 16.5333C14.3221 16.9077 14.8622 17.4478 15.489 18.0747L17 19.5857V10.4852C17 9.17738 16.9823 8.80202 16.8477 8.47722C16.7132 8.15241 16.4603 7.87448 15.5355 6.94969L14.1213 5.53548C13.4347 4.84882 12.9893 4.40646 12.6183 4.12339C12.2703 3.85793 12.1076 3.82837 12 3.82837C11.8923 3.82837 11.7296 3.85793 11.3817 4.12339ZM10.1685 2.53335C10.6944 2.13215 11.2792 1.82837 12 1.82837C12.7208 1.82837 13.3056 2.13215 13.8314 2.53335C14.3221 2.90771 14.8622 3.44784 15.489 4.07471L16.9497 5.53548C16.9903 5.57604 17.0304 5.61606 17.07 5.65557C17.82 6.4044 18.3895 6.97302 18.6955 7.71185C19.0015 8.45068 19.0009 9.25545 19.0001 10.3153C19 10.3712 19 10.4279 19 10.4852V19.5857C19 19.607 19 19.6282 19 19.6494C19.0001 20.1074 19.0002 20.5536 18.9516 20.8976C18.9062 21.2185 18.7628 21.8934 18.074 22.1787C17.3853 22.4639 16.8067 22.0882 16.5477 21.8933C16.27 21.6845 15.9546 21.3689 15.6308 21.0449C15.6158 21.03 15.6008 21.015 15.5858 20.9999L14.1213 19.5355C13.4347 18.8488 12.9893 18.4065 12.6183 18.1234C12.2703 17.8579 12.1076 17.8284 12 17.8284C11.8923 17.8284 11.7296 17.8579 11.3817 18.1234C11.0107 18.4065 10.5653 18.8488 9.87867 19.5355L8.4142 20.9999C8.39919 21.015 8.38419 21.03 8.36921 21.0449C8.04539 21.3689 7.72997 21.6845 7.45231 21.8933C7.19329 22.0882 6.61472 22.4639 5.92597 22.1787C5.23721 21.8934 5.0938 21.2185 5.04842 20.8976C4.99978 20.5536 4.99988 20.1074 4.99998 19.6494C4.99999 19.6282 4.99999 19.607 4.99999 19.5857V10.4852C4.99999 10.4279 4.99995 10.3712 4.9999 10.3153C4.99907 9.25545 4.99844 8.45068 5.30447 7.71185C5.61051 6.97302 6.18001 6.40441 6.93002 5.65557C6.9696 5.61606 7.00967 5.57604 7.05024 5.53548L8.46445 4.12126C8.48002 4.1057 8.49554 4.09018 8.511 4.07472C9.13781 3.44784 9.67788 2.90771 10.1685 2.53335Z" fill="white"/>
</svg>

<svg width="24" height="24" fill="none" xmlns="http://www.w3.org/2000/svg"><path fill-rule="evenodd" clip-rule="evenodd" d="M11.382 4.123c-.371.283-.817.726-1.503 1.412L8.464 6.95c-.924.924-1.177 1.202-1.312 1.527-.134.325-.152.7-.152 2.008v9.1l1.511-1.51c.627-.627 1.167-1.167 1.658-1.542.525-.4 1.11-.705 1.831-.705.72 0 1.306.304 1.831.705.491.375 1.031.915 1.658 1.542L17 19.585v-9.1c0-1.308-.018-1.683-.152-2.008-.135-.325-.388-.603-1.312-1.527L14.12 5.535c-.686-.686-1.132-1.129-1.503-1.412-.348-.265-.51-.295-.618-.295-.108 0-.27.03-.618.295zm-1.213-1.59c.525-.4 1.11-.705 1.831-.705.72 0 1.306.304 1.831.705.491.375 1.031.915 1.658 1.542l1.46 1.46.121.12c.75.75 1.32 1.318 1.625 2.057.306.739.306 1.543.305 2.603v9.334c0 .458 0 .905-.048 1.249-.046.32-.19.995-.878 1.28-.689.286-1.267-.09-1.526-.285-.278-.209-.593-.524-.917-.848a9.546 9.546 0 0 1-.045-.045l-1.465-1.465c-.686-.686-1.132-1.128-1.503-1.412-.348-.265-.51-.295-.618-.295-.108 0-.27.03-.618.295-.371.284-.817.726-1.503 1.412L8.414 21l-.045.045c-.324.324-.639.64-.917.848-.259.195-.837.57-1.526.286-.689-.286-.832-.96-.878-1.281C5 20.554 5 20.108 5 19.649v-9.163-.17c0-1.06-.002-1.865.304-2.604.307-.739.876-1.308 1.626-2.056l.12-.12L8.464 4.12l.047-.046c.627-.627 1.167-1.167 1.658-1.542z" fill="#fff"/></svg>
